icons/pop_pyr_stg3.svg

<?xml version="1.0" standalone="no"?>
<!DOCTYPE svg PUBLIC "-//W3C//DTD SVG 20010904//EN"
 "http://www.w3.org/TR/2001/REC-SVG-20010904/DTD/svg10.dtd">
<svg version="1.0" xmlns="http://www.w3.org/2000/svg"
 width="118.000000pt" height="135.000000pt" viewBox="0 0 118.000000 135.000000"
 preserveAspectRatio="xMidYMid meet">

<g transform="translate(0.000000,135.000000) scale(0.100000,-0.100000)"
fill="#000000" stroke="none">
<path d="M438 1270 c-123 -51 -177 -79 -217 -114 -31 -28 -82 -131 -122 -247
-17 -52 -37 -98 -43 -104 -8 -7 -10 -117 -6 -380 l5 -370 516 -3 c417 -2 518
0 527 11 11 12 23 741 13 731 -3 -2 -26 53 -52 122 -78 202 -105 241 -207 293
-57 29 -240 100 -272 106 -15 2 -71 -15 -142 -45z m132 -585 l0 -605 -250 0
-250 0 0 350 c0 227 4 350 10 350 6 0 10 7 10 16 0 27 70 214 103 277 33 62
51 79 137 122 68 35 211 94 227 95 10 0 13 -132 13 -605z m152 554 c201 -79
224 -103 313 -328 l45 -114 0 -359 0 -358 -250 0 -249 0 -1 605 c0 333 3 605
6 605 3 0 64 -23 136 -51z"/>
<path d="M140 790 c0 -5 5 -10 11 -10 5 0 7 5 4 10 -3 6 -8 10 -11 10 -2 0 -4
-4 -4 -10z"/>
<path d="M170 790 c0 -5 5 -10 10 -10 6 0 10 5 10 10 0 6 -4 10 -10 10 -5 0
-10 -4 -10 -10z"/>
<path d="M205 790 c-3 -5 -1 -10 4 -10 6 0 11 5 11 10 0 6 -2 10 -4 10 -3 0
-8 -4 -11 -10z"/>
<path d="M300 790 c0 -5 5 -10 11 -10 5 0 7 5 4 10 -3 6 -8 10 -11 10 -2 0 -4
-4 -4 -10z"/>
<path d="M335 790 c-3 -5 -1 -10 4 -10 6 0 11 5 11 10 0 6 -2 10 -4 10 -3 0
-8 -4 -11 -10z"/>
<path d="M430 790 c0 -5 5 -10 11 -10 5 0 7 5 4 10 -3 6 -8 10 -11 10 -2 0 -4
-4 -4 -10z"/>
<path d="M460 790 c0 -5 5 -10 10 -10 6 0 10 5 10 10 0 6 -4 10 -10 10 -5 0
-10 -4 -10 -10z"/>
<path d="M495 790 c-3 -5 -1 -10 4 -10 6 0 11 5 11 10 0 6 -2 10 -4 10 -3 0
-8 -4 -11 -10z"/>
<path d="M590 790 c0 -5 5 -10 10 -10 6 0 10 5 10 10 0 6 -4 10 -10 10 -5 0
-10 -4 -10 -10z"/>
<path d="M625 790 c-3 -5 -1 -10 4 -10 6 0 11 5 11 10 0 6 -2 10 -4 10 -3 0
-8 -4 -11 -10z"/>
<path d="M720 790 c0 -5 5 -10 11 -10 5 0 7 5 4 10 -3 6 -8 10 -11 10 -2 0 -4
-4 -4 -10z"/>
<path d="M755 790 c-3 -5 -1 -10 4 -10 6 0 11 5 11 10 0 6 -2 10 -4 10 -3 0
-8 -4 -11 -10z"/>
<path d="M850 790 c0 -5 5 -10 11 -10 5 0 7 5 4 10 -3 6 -8 10 -11 10 -2 0 -4
-4 -4 -10z"/>
<path d="M880 790 c0 -5 5 -10 10 -10 6 0 10 5 10 10 0 6 -4 10 -10 10 -5 0
-10 -4 -10 -10z"/>
<path d="M915 790 c-3 -5 -1 -10 4 -10 6 0 11 5 11 10 0 6 -2 10 -4 10 -3 0
-8 -4 -11 -10z"/>
<path d="M1010 790 c0 -5 5 -10 10 -10 6 0 10 5 10 10 0 6 -4 10 -10 10 -5 0
-10 -4 -10 -10z"/>
<path d="M1045 790 c-3 -5 -1 -10 4 -10 6 0 11 5 11 10 0 6 -2 10 -4 10 -3 0
-8 -4 -11 -10z"/>
<path d="M10 790 c0 -5 5 -10 11 -10 5 0 7 5 4 10 -3 6 -8 10 -11 10 -2 0 -4
-4 -4 -10z"/>
<path d="M1140 790 c0 -5 5 -10 11 -10 5 0 7 5 4 10 -3 6 -8 10 -11 10 -2 0
-4 -4 -4 -10z"/>
</g>
</svg>

<?xml version="1.0" encoding="utf-8"?>
<!-- Generator: Adobe Illustrator 25.4.1, SVG Export Plug-In . SVG Version: 6.00 Build 0)  -->
<svg version="1.1" id="Ebene_1" xmlns="http://www.w3.org/2000/svg" xmlns:xlink="http://www.w3.org/1999/xlink" x="0px" y="0px"
	 viewBox="0 0 118 135" style="enable-background:new 0 0 118 135;" xml:space="preserve">
<style type="text/css">
	.st0{fill:#E78AC3;}
</style>
<rect class="st0" width="118" height="135"/>
<g transform="translate(0.000000,135.000000) scale(0.100000,-0.100000)">
	<path d="M438,1270c-123-51-177-79-217-114c-31-28-82-131-122-247c-17-52-37-98-43-104c-8-7-10-117-6-380l5-370l516-3
		c417-2,518,0,527,11c11,12,23,741,13,731c-3-2-26,53-52,122c-78,202-105,241-207,293c-57,29-240,100-272,106
		C565,1317,509,1300,438,1270z M570,685V80H320H70v350c0,227,4,350,10,350s10,7,10,16c0,27,70,214,103,277c33,62,51,79,137,122
		c68,35,211,94,227,95C567,1290,570,1158,570,685z M722,1239c201-79,224-103,313-328l45-114V438V80H830H581l-1,605
		c0,333,3,605,6,605S650,1267,722,1239z"/>
	<path d="M140,790c0-5,5-10,11-10c5,0,7,5,4,10c-3,6-8,10-11,10C142,800,140,796,140,790z"/>
	<path d="M170,790c0-5,5-10,10-10c6,0,10,5,10,10c0,6-4,10-10,10C175,800,170,796,170,790z"/>
	<path d="M205,790c-3-5-1-10,4-10c6,0,11,5,11,10c0,6-2,10-4,10C213,800,208,796,205,790z"/>
	<path d="M300,790c0-5,5-10,11-10c5,0,7,5,4,10c-3,6-8,10-11,10C302,800,300,796,300,790z"/>
	<path d="M335,790c-3-5-1-10,4-10c6,0,11,5,11,10c0,6-2,10-4,10C343,800,338,796,335,790z"/>
	<path d="M430,790c0-5,5-10,11-10c5,0,7,5,4,10c-3,6-8,10-11,10C432,800,430,796,430,790z"/>
	<path d="M460,790c0-5,5-10,10-10c6,0,10,5,10,10c0,6-4,10-10,10C465,800,460,796,460,790z"/>
	<path d="M495,790c-3-5-1-10,4-10c6,0,11,5,11,10c0,6-2,10-4,10C503,800,498,796,495,790z"/>
	<path d="M590,790c0-5,5-10,10-10c6,0,10,5,10,10c0,6-4,10-10,10C595,800,590,796,590,790z"/>
	<path d="M625,790c-3-5-1-10,4-10c6,0,11,5,11,10c0,6-2,10-4,10C633,800,628,796,625,790z"/>
	<path d="M720,790c0-5,5-10,11-10c5,0,7,5,4,10c-3,6-8,10-11,10C722,800,720,796,720,790z"/>
	<path d="M755,790c-3-5-1-10,4-10c6,0,11,5,11,10c0,6-2,10-4,10C763,800,758,796,755,790z"/>
	<path d="M850,790c0-5,5-10,11-10c5,0,7,5,4,10c-3,6-8,10-11,10C852,800,850,796,850,790z"/>
	<path d="M880,790c0-5,5-10,10-10c6,0,10,5,10,10c0,6-4,10-10,10C885,800,880,796,880,790z"/>
	<path d="M915,790c-3-5-1-10,4-10c6,0,11,5,11,10c0,6-2,10-4,10C923,800,918,796,915,790z"/>
	<path d="M1010,790c0-5,5-10,10-10c6,0,10,5,10,10c0,6-4,10-10,10C1015,800,1010,796,1010,790z"/>
	<path d="M1045,790c-3-5-1-10,4-10c6,0,11,5,11,10c0,6-2,10-4,10C1053,800,1048,796,1045,790z"/>
	<path d="M10,790c0-5,5-10,11-10c5,0,7,5,4,10c-3,6-8,10-11,10C12,800,10,796,10,790z"/>
	<path d="M1140,790c0-5,5-10,11-10c5,0,7,5,4,10c-3,6-8,10-11,10C1142,800,1140,796,1140,790z"/>
</g>
</svg>
